public/avatar/shoe/167.svg

<svg xmlns:xlink="http://www.w3.org/1999/xlink" height="38.3" width="36.05" xmlns="http://www.w3.org/2000/svg"><use height="18.85" transform="translate(7.25 10.3)" width="26" xlink:href="#a"/><defs><g id="a"><path d="m7.55 7.05.25-2.7 1.2.7q.6.55.4.85-.85 1.45-1.85 1.15" fill-rule="evenodd" transform="translate(16.55 4.55)"/><path d="M-6.25-3.6q1-.75 5.75-.9Q5-4.75 6.6-3.15 8.15-1.65 8.05 5L8 6.75l-.1.3Q5.4 11.1-2.2 12.4q-5.2.75-6.3-.85l-.25-.75.05-.15h-.95q-3.3 0-4.05-.8-.5-.35-.5-1.1 0-4.4 6.55-6.65L-7.6.9q.35-3.65 1.35-4.5" fill="#363636" fill-rule="evenodd" transform="translate(16.55 4.55)"/><path d="M-.25-3.25q5.4-.2 6.4 1.55.7 1.2.6 8.25-1.6 3.35-8.95 4.6-6.8 1.2-5.2-1.5-5.45.2-5.55-.9Q-13.2 5.1-6.5 2.9q.4-4.85.8-5.3.6-.75 5.45-.85" fill="#33a02c" fill-rule="evenodd" transform="translate(16.55 4.55)"/><path d="M-4.65 5.8q.45.45-1.5 1.3Q-8.7 8.15-9.4 9.5l-3.45-.5q4.1-5.4 8.2-3.2m6.5-9.05q3.75.05 4.5 2.05.45 1.1.4 7.75-1.6 3.35-8.95 4.6l-4.75.1q5.3-.6 7.85-4.65 2.75-4.25.95-9.85" fill="#296300" fill-rule="evenodd" transform="translate(16.55 4.55)"/><path d="M-12.75 5.65q2.9-.05 3.55 2.1.45 1.6-.2 2.55-.2.25-4.6 1.85l-2.35.15q-.5-.55.4-3 1-2.75 3.2-3.65" fill-rule="evenodd" transform="translate(16.55 4.55)"/><path d="M-10.65 6.05q-1.95 4.35-5.7 4.7.75-3.9 3.6-5.1 1.1-.05 2.1.4" fill="#424141" fill-rule="evenodd" transform="translate(16.55 4.55)"/><path d="M-9.25 10.25Q-9.45 9-7.95 7.9q1.25-.85 2.75-1.1.75-.4 1.05-1.9" fill="none" stroke="#363636" stroke-linecap="round" stroke-linejoin="round" transform="translate(16.55 4.55)"/><path d="M-6.95 7.65Q-4 7.6-3.4 9.75q.45 1.65-.25 2.55-.25.45-4.55 1.85l-2.3.15q-.5-.5.35-2.95 1-2.8 3.2-3.7" fill-rule="evenodd" transform="translate(16.55 4.55)"/><path d="M-3.65 9.15q-1 1.85-3 2.75-2.05.95-3.75.35.8-3.5 3.45-4.6 2.45-.05 3.3 1.5" fill="#424141" fill-rule="evenodd" transform="translate(16.55 4.55)"/><path d="m-13.95 7.75-1.2 1.15q-.05-.8.95-1.8 1.7-2 1.6-.25l-1.35.9M-8 10.1l-1.2 1.2q-.05-.7.95-1.8 1.65-1.7 1.6-.2l-1.35.8" fill="#fff" fill-rule="evenodd" transform="translate(16.55 4.55)"/></g></defs></svg>

<?xml version="1.0" encoding="UTF-8" standalone="no"?>
<svg xmlns:xlink="http://www.w3.org/1999/xlink" height="38.3px" width="36.05px" xmlns="http://www.w3.org/2000/svg">
  <g transform="matrix(1.0, 0.0, 0.0, 1.0, 23.8, 14.85)">
    <use height="18.85" transform="matrix(1.0, 0.0, 0.0, 1.0, -16.55, -4.55)" width="26.0" xlink:href="#shape0"/>
  </g>
  <defs>
    <g id="shape0" transform="matrix(1.0, 0.0, 0.0, 1.0, 16.55, 4.55)">
      <path d="M7.55 7.05 L7.8 4.35 9.0 5.05 Q9.6 5.6 9.4 5.9 8.55 7.35 7.55 7.05" fill="#000000" fill-rule="evenodd" stroke="none"/>
      <path d="M-6.25 -3.6 Q-5.25 -4.35 -0.5 -4.5 5.0 -4.75 6.6 -3.15 8.15 -1.65 8.05 5.0 L8.0 6.75 7.9 7.05 Q5.4 11.1 -2.2 12.4 -7.4 13.15 -8.5 11.55 L-8.75 10.8 -8.7 10.65 -9.65 10.65 Q-12.95 10.65 -13.7 9.85 -14.2 9.5 -14.2 8.75 -14.2 4.35 -7.65 2.1 L-7.6 0.9 Q-7.25 -2.75 -6.25 -3.6" fill="#363636" fill-rule="evenodd" stroke="none"/>
      <path d="M-0.25 -3.25 Q5.15 -3.45 6.15 -1.7 6.85 -0.5 6.75 6.55 5.15 9.9 -2.2 11.15 -9.0 12.35 -7.4 9.65 -12.85 9.85 -12.95 8.75 -13.2 5.1 -6.5 2.9 -6.1 -1.95 -5.7 -2.4 -5.1 -3.15 -0.25 -3.25" fill="#33a02c" fill-rule="evenodd" stroke="none"/>
      <path d="M-4.65 5.8 Q-4.2 6.25 -6.15 7.1 -8.7 8.15 -9.4 9.5 L-12.85 9.0 Q-8.75 3.6 -4.65 5.8" fill="#296300" fill-rule="evenodd" stroke="none"/>
      <path d="M1.85 -3.25 Q5.6 -3.2 6.35 -1.2 6.8 -0.1 6.75 6.55 5.15 9.9 -2.2 11.15 L-6.95 11.25 Q-1.65 10.65 0.9 6.6 3.65 2.35 1.85 -3.25" fill="#296300" fill-rule="evenodd" stroke="none"/>
      <path d="M-12.75 5.65 Q-9.85 5.6 -9.2 7.75 -8.75 9.35 -9.4 10.3 -9.6 10.55 -14.0 12.15 L-16.35 12.3 Q-16.85 11.75 -15.95 9.3 -14.95 6.55 -12.75 5.65" fill="#000000" fill-rule="evenodd" stroke="none"/>
      <path d="M-10.65 6.05 Q-12.6 10.4 -16.35 10.75 -15.6 6.85 -12.75 5.65 -11.65 5.6 -10.65 6.05" fill="#424141" fill-rule="evenodd" stroke="none"/>
      <path d="M-9.25 10.25 Q-9.45 9.0 -7.95 7.9 -6.7 7.05 -5.2 6.8 -4.45 6.4 -4.15 4.9" fill="none" stroke="#363636" stroke-linecap="round" stroke-linejoin="round" stroke-width="1.0"/>
      <path d="M-6.95 7.65 Q-4.0 7.6 -3.4 9.75 -2.95 11.4 -3.65 12.3 -3.9 12.75 -8.2 14.15 L-10.5 14.3 Q-11.0 13.8 -10.15 11.35 -9.15 8.55 -6.95 7.65" fill="#000000" fill-rule="evenodd" stroke="none"/>
      <path d="M-3.65 9.15 Q-4.65 11.0 -6.65 11.9 -8.7 12.85 -10.4 12.25 -9.6 8.75 -6.95 7.65 -4.5 7.6 -3.65 9.15" fill="#424141" fill-rule="evenodd" stroke="none"/>
      <path d="M-13.95 7.75 L-15.15 8.9 Q-15.2 8.1 -14.2 7.1 -12.5 5.1 -12.6 6.85 L-13.95 7.75" fill="#ffffff" fill-rule="evenodd" stroke="none"/>
      <path d="M-8.0 10.1 L-9.2 11.3 Q-9.25 10.6 -8.25 9.5 -6.6 7.8 -6.65 9.3 L-8.0 10.1" fill="#ffffff" fill-rule="evenodd" stroke="none"/>
    </g>
  </defs>
</svg>
